public/images/favicon.svg

<svg width="70" height="70" viewBox="0 0 70 70" fill="none" xmlns="http://www.w3.org/2000/svg">
<path d="M42.2334 34.6294C44.0994 34.6294 45.6837 35.0176 46.9864 35.7941C48.3242 36.5353 49.3277 37.5059 49.9966 38.7059C50.6655 39.9059 51 41.1765 51 42.5176C51 45.8 49.5917 48.3765 46.7751 50.2471C43.9938 52.0824 39.9097 53 34.523 53H20V51.1471L22.5877 51.0941V19.4353L20 19.3824V17.5294L30.1925 17.6353L37.9029 17C41.2828 17 43.8705 17.7412 45.6661 19.2235C47.4617 20.6706 48.3595 22.5941 48.3595 24.9941C48.3595 27.2529 47.6025 29.2118 46.0886 30.8706C44.5747 32.4941 42.3566 33.8 39.4344 34.7882L42.2334 34.6294ZM38.9591 27.0059C38.9591 24.5 38.3078 22.6118 37.0051 21.3412C35.7376 20.0353 33.8541 19.3824 31.3543 19.3824V34.6294C33.9245 34.4529 35.8257 33.7471 37.0579 32.5118C38.3254 31.2412 38.9591 29.4059 38.9591 27.0059ZM31.3543 51.1471C34.9455 51.1471 37.5508 50.5824 39.1704 49.4529C40.7899 48.3235 41.5997 46.5235 41.5997 44.0529C41.5997 41.5824 40.8603 39.7118 39.3816 38.4412C37.9381 37.1706 35.7905 36.5353 32.9387 36.5353H31.3543V51.1471Z" fill="#464646"/>
</svg>

<svg width="70" height="70" fill="none" xmlns="http://www.w3.org/2000/svg"><path d="M42.233 34.63c1.866 0 3.45.388 4.753 1.164 1.338.741 2.342 1.712 3.01 2.912A7.712 7.712 0 0 1 51 42.518c0 3.282-1.408 5.858-4.225 7.73C43.994 52.081 39.91 53 34.523 53H20v-1.853l2.588-.053V19.435L20 19.382V17.53l10.192.106 7.71-.635c3.38 0 5.968.741 7.764 2.224 1.796 1.447 2.694 3.37 2.694 5.77 0 2.259-.758 4.218-2.271 5.877-1.514 1.623-3.732 2.929-6.655 3.917l2.8-.159zm-3.274-7.624c0-2.506-.651-4.394-1.954-5.665-1.267-1.306-3.15-1.959-5.65-1.959V34.63c2.57-.176 4.47-.882 5.703-2.117 1.267-1.27 1.901-3.106 1.901-5.506zm-7.605 24.141c3.592 0 6.197-.565 7.816-1.694 1.62-1.13 2.43-2.93 2.43-5.4s-.74-4.341-2.218-5.612c-1.444-1.27-3.591-1.906-6.443-1.906h-1.585v14.612z" fill="#464646"/></svg>
